resources/svg/hashtag.svg

<svg xmlns="http://www.w3.org/2000/svg" viewBox="0 0 15 15" fill="currentColor"><path fill-rule="evenodd" clip-rule="evenodd" d="M5.40977 5L6.0068 1.4178L6.9932 1.5822L6.42356 5H9.40977L10.0068 1.4178L10.9932 1.5822L10.4236 5H13V6H10.2569L9.7569 9H13V10H9.59023L8.9932 13.5822L8.0068 13.4178L8.57644 10H5.59023L4.9932 13.5822L4.0068 13.4178L4.57644 10H2V9H4.7431L5.2431 6H2V5H5.40977ZM6.2569 6L5.7569 9H8.7431L9.2431 6H6.2569Z" fill="black"/></svg>

<svg xmlns="http://www.w3.org/2000/svg" viewBox="0 0 15 15" fill="currentColor"><path fill-rule="evenodd" clip-rule="evenodd" d="M5.41 5l.597-3.582.986.164L6.423 5H9.41l.597-3.582.986.164L10.423 5H13v1h-2.743l-.5 3H13v1H9.59l-.597 3.582-.986-.164.57-3.418H5.59l-.597 3.582-.986-.164.57-3.418H2V9h2.743l.5-3H2V5h3.41zm.847 1l-.5 3h2.986l.5-3H6.257z" fill="currentColor"/></svg>
